public/avatar/item0/36.svg

<svg xmlns:xlink="http://www.w3.org/1999/xlink" height="58.65" width="49.15" xmlns="http://www.w3.org/2000/svg"><g transform="translate(24.1 18.1)"><use height="11.5" transform="translate(-14.15 -.65)" width="27.8" xlink:href="#a"/><use height="4.55" transform="translate(-11.45 .8)" width="22.7" xlink:href="#b"/></g><defs><g id="c" fill-rule="evenodd"><path d="M5.65 5.2q.45.85-.4 2.7-.8 1.75-1.95 2.9-1.85 1.85-2.95-.3-1-2.2.85-4.05 1.15-1.15 2.55-1.6 1.5-.5 1.9.35M22 4.5q.35-.9 1.85-.5 1.4.35 2.65 1.45 1.95 1.75.95 4t-2.9.45q-1.2-1.1-2.05-2.75-.9-1.8-.5-2.65" fill="#303030" transform="translate(0 -.15)"/><path d="M26.5 2.8q1.05 1.75-.4 3.35L23.7 8q-4.3 1.05-6.6.55L14 6.75q-1.1 1.4-3.05 1.8L4.35 8l-2-1.4q-1.15-1.2-.6-3.4Q2.1 2 6.2 1.35q4.05-.6 6.6.05L14 2.65l1.25-1.25q2.45-.65 6.55-.15 4.05.5 4.7 1.55" fill="#454545" transform="translate(0 -.15)"/><path d="M25.7 2.95q-.5-.65-3.9-.95l-6.05.2-.15.25q-.6.95-1.45 1.1-1.1.15-1.7-1.05l-.2-.3-5.95-.15q-3.35.3-3.85.85L2.3 4q0 1.55 1.95 2.8l.45.35q3.95.95 6.05.5 1.6-.3 2.55-1.45l.65-.8.7.7 2.6 1.55 6.05-.5.35-.25Q26 5.2 26 4l-.3-1.05M21.8.15q4.5.4 5.5 2.2 1.65 3-2.6 6-6 1.2-7.9.8l-2.55-2Q12 9.05 11.1 9.2l-7.2-.4-.65-.45Q.1 6.25.9 2.95q.15-.65.95-1.15Q3.5.8 7.15.4q3.7-.45 5.85.1h.3l.7 1.1.7-1 .3-.1 6.8-.35" fill="#454545" transform="translate(0 -.15)"/><path d="M23.75 7.45 17.1 8q-1.3-.1-2.05-.95l10.9-1.35-2.2 1.75" fill="#d5d5d5" transform="translate(0 -.15)"/><path d="m15.25 1.4 6.7-.45q4.3.35 4.9 2l-.05.8q-5.75-2.1-11.65-2.25l.1-.1" fill="#fff" transform="translate(0 -.15)"/><path d="M24.9 7.3q-2.2.4-4.95.05l-4.9-.3-.6-1.2q-.45-.9-.8 0l-.6 1.55-9.6-.15-1.5-1.15q-1-.95-.8-2.65Q3.2 2.1 6.7 1.75l6.15-.25L14 2.65l1.15-1.15q8.1.2 11.85 1.55.35 2.75-2.1 4.25" fill="#ececec" transform="translate(0 -.15)"/><path d="M12.85 1.5q-6.6.25-11.2 3.25l-.5-1.3Q3.5 2.3 5.8 1.1l7 .3.05.1" fill="#d5d5d5" transform="translate(0 -.15)"/><path d="M1.15 3.35q.8-1.85 4.7-2.2l-4.7 2.2" fill="#fff" transform="translate(0 -.15)"/><path d="M13.25 7.15q-.6.65-2.15.95l-6.95-.45-.7-.4q5.35.15 9.8-.1" fill="#d5d5d5" transform="translate(0 -.15)"/><path d="M11.7 1.6q1.55.45 1.2 2-.25 1.3-1.2 2.25-.65.65-3.25.8l-3.35-.1Q3.65 6.3 2.75 3.4q-.5-1.35 3.95-1.8 3.85-.35 5 0m4.6.2 5.05-.25q4.4.15 4 1.55-.75 2.95-2.15 3.3l-3.35.3q-2.6 0-3.3-.65-1.05-1-1.35-2.2-.4-1.5 1.1-2.05" transform="translate(0 -.15)"/><path d="m9.4 7.2 2.2-.3.15.6L9 7.75l.4-.55m6.3-.3.3-.5 1.3.8.3.55q-.75 0-1.9-.85M2.3 4.55q.4.7 0 .8-.4.2-.65-.5-.35-.6 0-.8.35-.2.65.5m24.05-.25q-.25.7-.65.5-.25-.2 0-.8.4-.65.65-.5.35.2 0 .8" fill="#797979" transform="translate(0 -.15)"/></g><g id="b" fill-rule="evenodd"><path d="M11.2 2.35Q10.65 4.7 9.15 5l-3.2.25q-2.55 0-3.2-.55Q-.1 2 2.5 1.1q9.35-.75 8.7 1.25m-22.6.3q-.45-1.3 3.75-1.65Q-3.9.65-2.85.95-.1 1.7-2.9 4.5q-.65.65-3.1.75l-3.2-.1q-1.45-.2-2.2-2.5" fill="#ff3d2b" transform="translate(11.45 -.8)"/><path d="M-6.3 1.25q1.2.2-2.35 1.15-.15 1.5-.7 1.45-.8 0-1.3-1.35-.35-.6 1.85-1l2.5-.25" fill="#fff" transform="translate(11.45 -.8)"/><path d="M-5.5 4.3q1.9-.5 3.4-1.3-.4 1-1.05 1.55-.6.6-3.2.7l.85-.95" fill="#59120c" transform="translate(11.45 -.8)"/><path d="m-9.8 4.7 4.3-.4-.85.95-2.65-.1q-.4-.05-.8-.45" fill="#892116" transform="translate(11.45 -.8)"/><path d="m2.55 3.4-.1-.05Q.75 2 2.3 1.55l2.95-.05q-1.1 1.15-2.7 1.9" fill="#fff" transform="translate(11.45 -.8)"/><path d="M10.6 2.45Q10 4.9 8.7 5.15l-1.45.2 2.25-3.9q1.3.35 1.1 1" fill="#59120c" transform="translate(11.45 -.8)"/><path d="m9.5 1.45-2.25 3.9L3.05 5q2.9-1.35 5.3-3.75l1.15.2" fill="#892116" transform="translate(11.45 -.8)"/></g><use height="11.5" width="27.8" xlink:href="#c" id="a"/></defs></svg>

<?xml version="1.0" encoding="UTF-8" standalone="no"?>
<svg xmlns:xlink="http://www.w3.org/1999/xlink" height="58.65px" width="49.15px" xmlns="http://www.w3.org/2000/svg">
  <g transform="matrix(1.0, 0.0, 0.0, 1.0, 24.1, 18.1)">
    <use height="11.5" transform="matrix(1.0, 0.0, 0.0, 1.0, -14.15, -0.65)" width="27.8" xlink:href="#sprite0"/>
    <use height="4.55" transform="matrix(1.0, 0.0, 0.0, 1.0, -11.45, 0.8)" width="22.7" xlink:href="#shape1"/>
  </g>
  <defs>
    <g id="sprite0" transform="matrix(1.0, 0.0, 0.0, 1.0, 0.0, -0.15)">
      <use height="11.5" transform="matrix(1.0, 0.0, 0.0, 1.0, 0.0, 0.15)" width="27.8" xlink:href="#shape0"/>
    </g>
    <g id="shape0" transform="matrix(1.0, 0.0, 0.0, 1.0, 0.0, -0.15)">
      <path d="M5.65 5.2 Q6.1 6.05 5.25 7.9 4.45 9.65 3.3 10.8 1.45 12.65 0.35 10.5 -0.65 8.3 1.2 6.45 2.35 5.3 3.75 4.85 5.25 4.35 5.65 5.2" fill="#303030" fill-rule="evenodd" stroke="none"/>
      <path d="M22.0 4.5 Q22.35 3.6 23.85 4.0 25.25 4.35 26.5 5.45 28.45 7.2 27.45 9.45 26.45 11.7 24.55 9.9 23.35 8.8 22.5 7.15 21.6 5.35 22.0 4.5" fill="#303030" fill-rule="evenodd" stroke="none"/>
      <path d="M26.5 2.8 Q27.55 4.55 26.1 6.15 L23.7 8.0 Q19.4 9.05 17.1 8.55 L14.0 6.75 Q12.9 8.15 10.95 8.55 L4.35 8.0 2.35 6.6 Q1.2 5.4 1.75 3.2 2.1 2.0 6.2 1.35 10.25 0.75 12.8 1.4 L14.0 2.65 15.25 1.4 Q17.7 0.75 21.8 1.25 25.85 1.75 26.5 2.8" fill="#454545" fill-rule="evenodd" stroke="none"/>
      <path d="M25.7 2.95 Q25.2 2.3 21.8 2.0 L15.75 2.2 15.6 2.45 Q15.0 3.4 14.15 3.55 13.05 3.7 12.45 2.5 L12.25 2.2 6.3 2.05 Q2.95 2.35 2.45 2.9 L2.3 4.0 Q2.3 5.55 4.25 6.8 L4.7 7.15 Q8.65 8.1 10.75 7.65 12.35 7.35 13.3 6.2 L13.95 5.4 14.65 6.1 17.25 7.65 23.3 7.15 23.65 6.9 Q26.0 5.2 26.0 4.0 L25.7 2.95 M21.8 0.15 Q26.3 0.55 27.3 2.35 28.95 5.35 24.7 8.35 18.7 9.55 16.8 9.15 L14.25 7.15 Q12.0 9.05 11.1 9.2 L3.9 8.8 3.25 8.35 Q0.1 6.25 0.9 2.95 1.05 2.3 1.85 1.8 3.5 0.8 7.15 0.4 10.85 -0.05 13.0 0.5 L13.3 0.5 14.0 1.6 14.7 0.6 15.0 0.5 21.8 0.15" fill="#454545" fill-rule="evenodd" stroke="none"/>
      <path d="M23.75 7.45 L17.1 8.0 Q15.8 7.9 15.05 7.05 L25.95 5.7 23.75 7.45" fill="#d5d5d5" fill-rule="evenodd" stroke="none"/>
      <path d="M15.25 1.4 L21.95 0.95 Q26.25 1.3 26.85 2.95 L26.8 3.75 Q21.05 1.65 15.15 1.5 L15.25 1.4" fill="#ffffff" fill-rule="evenodd" stroke="none"/>
      <path d="M24.9 7.3 Q22.7 7.7 19.95 7.35 L15.05 7.05 14.45 5.85 Q14.0 4.95 13.65 5.85 L13.05 7.4 3.45 7.25 1.95 6.1 Q0.95 5.15 1.15 3.45 3.2 2.1 6.7 1.75 L12.85 1.5 14.0 2.65 15.15 1.5 Q23.25 1.7 27.0 3.05 27.35 5.8 24.9 7.3" fill="#ececec" fill-rule="evenodd" stroke="none"/>
      <path d="M12.85 1.5 Q6.25 1.75 1.65 4.75 L1.15 3.45 Q3.5 2.3 5.8 1.1 L12.8 1.4 12.85 1.5" fill="#d5d5d5" fill-rule="evenodd" stroke="none"/>
      <path d="M1.15 3.35 Q1.95 1.5 5.85 1.15 L1.15 3.35" fill="#ffffff" fill-rule="evenodd" stroke="none"/>
      <path d="M13.25 7.15 Q12.65 7.8 11.1 8.1 L4.15 7.65 3.45 7.25 Q8.8 7.4 13.25 7.15" fill="#d5d5d5" fill-rule="evenodd" stroke="none"/>
      <path d="M11.7 1.6 Q13.25 2.05 12.9 3.6 12.65 4.9 11.7 5.85 11.05 6.5 8.45 6.65 L5.1 6.55 Q3.65 6.3 2.75 3.4 2.25 2.05 6.7 1.6 10.55 1.25 11.7 1.6" fill="#000000" fill-rule="evenodd" stroke="none"/>
      <path d="M16.3 1.8 L21.35 1.55 Q25.75 1.7 25.35 3.1 24.6 6.05 23.2 6.4 L19.85 6.7 Q17.25 6.7 16.55 6.05 15.5 5.05 15.2 3.85 14.8 2.35 16.3 1.8" fill="#000000" fill-rule="evenodd" stroke="none"/>
      <path d="M9.4 7.2 L11.6 6.9 11.75 7.5 9.0 7.75 9.4 7.2" fill="#797979" fill-rule="evenodd" stroke="none"/>
      <path d="M15.7 6.9 L16.0 6.4 17.3 7.2 17.6 7.75 Q16.85 7.75 15.7 6.9" fill="#797979" fill-rule="evenodd" stroke="none"/>
      <path d="M2.3 4.55 Q2.7 5.25 2.3 5.35 1.9 5.55 1.65 4.85 1.3 4.25 1.65 4.05 2.0 3.85 2.3 4.55" fill="#797979" fill-rule="evenodd" stroke="none"/>
      <path d="M26.35 4.3 Q26.1 5.0 25.7 4.8 25.45 4.6 25.7 4.0 26.1 3.35 26.35 3.5 26.7 3.7 26.35 4.3" fill="#797979" fill-rule="evenodd" stroke="none"/>
    </g>
    <g id="shape1" transform="matrix(1.0, 0.0, 0.0, 1.0, 11.45, -0.8)">
      <path d="M11.2 2.35 Q10.65 4.7 9.15 5.0 L5.95 5.25 Q3.4 5.25 2.75 4.7 -0.1 2.0 2.5 1.1 11.85 0.35 11.2 2.35" fill="#ff3d2b" fill-rule="evenodd" stroke="none"/>
      <path d="M-11.4 2.65 Q-11.85 1.35 -7.65 1.0 -3.9 0.65 -2.85 0.95 -0.1 1.7 -2.9 4.5 -3.55 5.15 -6.0 5.25 L-9.2 5.15 Q-10.65 4.95 -11.4 2.65" fill="#ff3d2b" fill-rule="evenodd" stroke="none"/>
      <path d="M-6.3 1.25 Q-5.1 1.45 -8.65 2.4 -8.8 3.9 -9.35 3.85 -10.15 3.85 -10.65 2.5 -11.0 1.9 -8.8 1.5 L-6.3 1.25" fill="#ffffff" fill-rule="evenodd" stroke="none"/>
      <path d="M-5.5 4.3 Q-3.6 3.8 -2.1 3.0 -2.5 4.0 -3.15 4.55 -3.75 5.15 -6.35 5.25 L-5.5 4.3" fill="#59120c" fill-rule="evenodd" stroke="none"/>
      <path d="M-9.8 4.7 L-5.5 4.3 -6.35 5.25 -9.0 5.15 Q-9.4 5.1 -9.8 4.7" fill="#892116" fill-rule="evenodd" stroke="none"/>
      <path d="M2.55 3.4 L2.45 3.35 Q0.75 2.0 2.3 1.55 L5.25 1.5 Q4.15 2.65 2.55 3.4" fill="#ffffff" fill-rule="evenodd" stroke="none"/>
      <path d="M10.6 2.45 Q10.0 4.9 8.7 5.15 L7.25 5.35 9.5 1.45 Q10.8 1.8 10.6 2.45" fill="#59120c" fill-rule="evenodd" stroke="none"/>
      <path d="M9.5 1.45 L7.25 5.35 3.05 5.0 Q5.95 3.65 8.35 1.25 L9.5 1.45" fill="#892116" fill-rule="evenodd" stroke="none"/>
    </g>
  </defs>
</svg>
